src/actions/24/office-chart-area-percentage.svg

<svg viewBox="0 0 24 24" xmlns="http://www.w3.org/2000/svg">
 <defs>
  <style type="text/css">.ColorScheme-Text {
        color:#2e3440;
      }</style>
 </defs>
 <path class="ColorScheme-Text" d="m5 4v3.9922 1.0078 7 1 1h-1v1h1v1h1v-1h14v-1h-14v-1h0.0078125 0.99219 2v-0.007812l0.0078125 0.007812 2-2h1.5918l2 2h3.5 1.9004v-1h-1.9004-3.0859l-2-2h-0.013672-0.99219-0.4082-1.0059l-2 2h-1.5938-0.99219-0.0078125v-3-1-1-2h0.0078125 0.99219 1.5879l4.5352 4.5352 0.001953-0.001953 0.001953 0.001953 2.127-2.125 3.166 3.166 0.70703-0.70703-3.8691-3.8691-0.003906 0.003906-0.005859-0.003906-2.123 2.123-4.123-4.123h-0.0019531-2v-0.0078125h-1v-0.99219h7v-1h-7v-2h-1zm8 0v1h1v3h1v-4h-1-1zm4.5 0c-0.831 0-1.5 0.669-1.5 1.5v1c0 0.831 0.669 1.5 1.5 1.5s1.5-0.669 1.5-1.5v-1c0-0.831-0.669-1.5-1.5-1.5zm4 0c-0.831 0-1.5 0.669-1.5 1.5v1c0 0.831 0.669 1.5 1.5 1.5s1.5-0.669 1.5-1.5v-1c0-0.831-0.669-1.5-1.5-1.5zm-4 1c0.277 0 0.5 0.223 0.5 0.5v1c0 0.277-0.223 0.5-0.5 0.5s-0.5-0.223-0.5-0.5v-1c0-0.277 0.223-0.5 0.5-0.5zm4 0c0.277 0 0.5 0.223 0.5 0.5v1c0 0.277-0.223 0.5-0.5 0.5s-0.5-0.223-0.5-0.5v-1c0-0.277 0.223-0.5 0.5-0.5z" fill="currentColor"/>
 <path class="ColorScheme-Text" d="m6.0078 7v1h2.9922l4 4v-4-1h-6.9922zm-0.0078125 2v2 1 1 3h0.0078125 2.5859l2-2h0.40625l2-0.007812 0.007812 0.007812h0.00586l1.9922 1.9922 1.9961 0.005859 2.0195-2.0195-0.001953-0.001954-0.59961 0.59961-3.166-3.166-2.127 2.125-0.001953-0.001953-0.001953 0.001953-4.5352-4.5352h-2.5801-0.0078125zm5 6-2 2h-3v1h14v-1h-5.4004l-2-2h-1.5996z" fill="currentColor" fill-opacity=".5"/>
</svg>

<svg xmlns="http://www.w3.org/2000/svg" viewBox="0 0 24 24">
  <defs id="defs3051">
    <style type="text/css" id="current-color-scheme">
      .ColorScheme-Text {
        color:#2e3440;
      }
      </style>
  </defs>
 <path 
     style="fill:currentColor;fill-opacity:1;stroke:none" 
     d="M 5 4 L 5 7.9921875 L 5 9 L 5 16 L 5 17 L 5 18 L 4 18 L 4 19 L 5 19 L 5 20 L 6 20 L 6 19 L 20 19 L 20 18 L 6 18 L 6 17 L 6.0078125 17 L 7 17 L 9 17 L 9 16.992188 L 9.0078125 17 L 11.007812 15 L 12.599609 15 L 14.599609 17 L 18.099609 17 L 20 17 L 20 16 L 18.099609 16 L 15.013672 16 L 13.013672 14 L 13 14 L 12.007812 14 L 11.599609 14 L 10.59375 14 L 8.59375 16 L 7 16 L 6.0078125 16 L 6 16 L 6 13 L 6 12 L 6 11 L 6 9 L 6.0078125 9 L 7 9 L 8.5878906 9 L 10.294922 10.707031 L 11.123047 11.535156 L 13.123047 13.535156 L 13.125 13.533203 L 13.126953 13.535156 L 15.253906 11.410156 L 16.550781 12.707031 L 17.378906 13.535156 L 18.419922 14.576172 L 19.126953 13.869141 L 18.085938 12.828125 L 17.257812 12 L 15.257812 10 L 15.253906 10.003906 L 15.248047 10 L 13.125 12.123047 L 11.830078 10.828125 L 11.001953 10 L 9.0019531 8 L 9 8 L 7 8 L 7 7.9921875 L 6 7.9921875 L 6 7 L 13 7 L 13 6 L 6 6 L 6 4 L 5 4 z M 13 4 L 13 5 L 14 5 L 14 8 L 15 8 L 15 4 L 14 4 L 13 4 z M 17.5 4 C 16.669 4 16 4.669 16 5.5 L 16 6.5 C 16 7.331 16.669 8 17.5 8 C 18.331 8 19 7.331 19 6.5 L 19 5.5 C 19 4.669 18.331 4 17.5 4 z M 21.5 4 C 20.669 4 20 4.669 20 5.5 L 20 6.5 C 20 7.331 20.669 8 21.5 8 C 22.331 8 23 7.331 23 6.5 L 23 5.5 C 23 4.669 22.331 4 21.5 4 z M 17.5 5 C 17.777 5 18 5.223 18 5.5 L 18 6.5 C 18 6.777 17.777 7 17.5 7 C 17.223 7 17 6.777 17 6.5 L 17 5.5 C 17 5.223 17.223 5 17.5 5 z M 21.5 5 C 21.777 5 22 5.223 22 5.5 L 22 6.5 C 22 6.777 21.777 7 21.5 7 C 21.223 7 21 6.777 21 6.5 L 21 5.5 C 21 5.223 21.223 5 21.5 5 z "
     class="ColorScheme-Text"
     />
 <path 
     style="fill:currentColor;fill-opacity:0.5;stroke:none" 
     d="M 6.0078125 7 L 6.0078125 8 L 9 8 L 13 12 L 13 8 L 13 7 L 6.0078125 7 z M 6 9 L 6 11 L 6 12 L 6 13 L 6 16 L 6.0078125 16 L 8.59375 16 L 10.59375 14 L 11 14 L 13 13.992188 L 13.007812 14 L 13.013672 14 L 15.005859 15.992188 L 17.001953 15.998047 L 18 15 L 19.021484 13.978516 L 19.019531 13.976562 L 18.419922 14.576172 L 17.378906 13.535156 L 16.550781 12.707031 L 15.253906 11.410156 L 13.126953 13.535156 L 13.125 13.533203 L 13.123047 13.535156 L 11.123047 11.535156 L 10.294922 10.707031 L 8.5878906 9 L 6.0078125 9 L 6 9 z M 11 15 L 9 17 L 6 17 L 6 18 L 20 18 L 20 17 L 14.599609 17 L 12.599609 15 L 11 15 z "
     class="ColorScheme-Text"
     />
</svg>
